X:2588
L:1/8
M:4/4
K:A
 (3efg |"A" a2- ab aecA |"D" defd"E" edce |"A" agab aecA |"D" defg"A" a2 ef |"G" =gabf gfge | 
"D" defd"E" efed |"A" c2 AB cABA |1"E" GABG"A" A2 :|2"E" GABG"A" A3 A- |:"A" A2 cA dAcA | 
"G" BA=GA BcdB |"A" A2 cA dAcA |"G" BA=GB"A" A3 A- | A2 cA dAcA |"G" BA=GA Bc d2 |"A" e3 e- efec |1 
"E" BA^GB"A" A3 A :|2"E" BA^GB"A" A2 |]

